!!!COM: Beethoven, Ludwig van
!!!CDT: 1770///-1827///
!!!OTL: Piano Sonata No. 19 in G minor
!!!ODT: ~1797///
!!!OPS: 49
!!!ONM: 1
!!!OMV: 2
!!!OMD: Rondo: Allegro
!!!AGN: Rondo
**kern	**kern	**dynam
*staff2	*staff1	*staff1/2
*clefF4	*clefG2	*clefG2
*k[f#]	*k[f#]	*k[f#]
*G:	*G:	*G:
*M6/8	*M6/8	*M6/8
*MM138	*MM138	*MM138
8r	8d'/	p
8r	8d'/L	.
8B'\ 8d'\L	8g'/	.
8A'\ 8c'\J	8a'/J	.
=1	=1	=1
4G\ 4B\	(8b/L	.
.	8g/J)	.
8r	8e'/	.
8r	8e'/L	.
8c'\ 8e'\L	8a'/	.
8B'\ 8d'\J	8b'/J	.
=2	=2	=2
4A\ 4c\	(8cc\L	.
.	8a\J)	.
8r	8ee'\	.
8r	8dd'\L	.
8F#'\ 8A'\L	8cc'\	.
8G'\ 8B'\J	8b'\J	.
=3	=3	=3
8A'\ 8c'\L	8a'/L	.
8B'\ 8d'\	8g'/	.
8c'\ 8e'\J	8a'/J	.
.	gq/LL	.
.	aq/JJ	.
4.c#\ 4.e\	(8b-/L	.
.	8a/)	.
.	8g'/J	.
=4	=4	=4
4d\	(8f#/L	.
.	8d/J)	.
8r	8d'/	.
8r	8d'/L	.
8B'\ 8d'\L	8g'/	.
8A'\ 8c'\J	8a'/J	.
=5	=5	=5
4G\ 4B\	(8bn/L	.
.	8g/J)	.
8r	8e'/	.
8r	8e'/L	.
8c'\ 8e'\L	8a'/	.
8B'\ 8d'\J	8b'/J	.
=6	=6	=6
4A\ 4c\	(8cc\L	.
.	8a\J)	.
8r	8ee'\	.
8r	8dd'\L	.
8F#'\ 8A'\L	8cc'\	.
8G'\ 8B'\J	8b'\J	.
=7	=7	=7
*	*^	*
8A'\ 8c'\L	8a'/L	4.r	.
8B'\ 8d'\	8g'/	.	.
8c'\ 8e'\J	8a'/J	.	.
4D\ 4B\	8d/L	(4d\	.
.	8g/)	.	.
8D\ 8A\	8f#/J	8c\	.
*	*v	*v	*
=8	=8	=8
4GG/ 4G/	4B/ 4g/	.
8r	(8d/	.
4r	8g'\L)	.
.	8b'\	.
8r	8dd'\J	.
=9	=9	=9
8r	(8dd\L	<
8F#'\ 8d'\L	8a'\ 8cc'\)	.
8F#'\ 8d'\J	8a'\ 8cc'\J	.
8r	(8dd\L	.
8G'\ 8d'\L	8g'\ 8b'\)	.
8G'\ 8d'\J	8g'\ 8b'\J	.
=10	=10	=10
8r	(8dd\L	.
8F#'\ 8d'\L	8a'\ 8cc'\)	.
8F#'\ 8d'\J	8a'\ 8cc'\J	.
8r	(8dd\L	.
8G'\ 8d'\L	8g'\ 8b'\)	.
8G'\ 8d'\J	8g'\ 8b'\J	.
=11	=11	=11
8r	(8dd\L	.
8F#'\ 8d'\L	8a\ 8cc\	.
8G'\ 8d'\J	8g'\ 8b'\J)	.
8r	(8dd\L	.
8F#'\ 8d'\L	8a\ 8cc\)	.
8G'\ 8d'\J	8g'\ 8b'\J	.
=12	=12	=12
4F#;\ 4d;\	4dd;/	.
*clefG2	*	*
8r	8dd\	p
8r	8dd'\L	.
8b'\ 8dd'\L	8gg'\	.
8a'\ 8cc'\J	8aa'\J	.
=13	=13	=13
4g/ 4b/	(8bb\L	.
.	8gg\J)	.
8r	8ee'\	.
8r	8ee'\L	.
8cc'\ 8ee'\L	8aa'\	.
8b'\ 8dd'\J	8bb'\J	.
=14	=14	=14
4a/ 4cc/	(8ccc\L	.
.	8aa\J)	.
8r	8eee'\	.
8r	8ddd'\L	.
8f#'/ 8a'/L	8ccc'\	.
8g'/ 8b'/J	8bb'\J	.
=15	=15	=15
*	*^	*
.	.	bbq/	.
8a'\ 8cc'\L	4.r	8aa'\L	.
8b'\ 8dd'\	.	8gg'\	.
8cc'\ 8ee'\J	.	8aa'\J	.
4d/ 4b/	(8dd/L	4dd\	.
.	8gg/)	.	.
8d/ 8a/	8ff#/J	8cc\	.
*clefF4	*	*	*
*	*v	*v	*
=16	=16	=16
4G\ 4g\	4b\ 4gg\	.
8d'\	8dd'\	f
(e-q/	(ee-q/	.
8d'\L)	8dd'\L)	.
8c#'\	8cc#'\	.
8d'\J	8dd'\J	.
=17	=17	=17
(4e-\	(4ee-\	.
8d'\)	8dd'\)	.
8c'\L	8cc'\L	.
8B-'\	8b-'\	.
8A'\J	8a'\J	.
=18	=18	=18
(4d\	(4dd\	.
8c'\)	8cc\)	.
8B-'\L	8b-'/L	.
8A'\	8a'/	.
8G'\J	8g'/J	.
=19	=19	=19
4.C\ 4.A\	(8e-/L	.
.	8cc/)	.
.	8b-'/J	.
4.D\ 4.c\	8a'/L	.
.	8g'/	.
.	8f#'/J	.
=20	=20	=20
*k[b-e-]	*k[b-e-]	*k[b-e-]
*g:	*g:	*g:
16G\LL	4g/	.
16d\	.	.
16B-\	.	.
16d\	.	.
16B-\	8ddd'\	p
16d\JJ	.	.
16F#\LL	(8ddd\L	.
16d\	.	.
16A\	8ccc#\)	.
16d\	.	.
16A\	8ddd'\J	.
16d\JJ	.	.
=21	=21	=21
16G\LL	(8ddd\L	<
16d\	.	.
16B-\	8ccc#\	.
16d\	.	.
16B-\	8ddd'\J)	.
16d\JJ	.	.
16F#\LL	(8ddd\L	.
16d\	.	.
16A\	8ccc#\)	.
16d\	.	.
16A\	8ddd'\J	.
16d\JJ	.	.
=22	=22	=22
16G\LL	(8ddd\L	f
16d\	.	.
16B-\	8cccn\)	.
16d\	.	.
16B-\	8bb-'\J	.
16d\JJ	.	.
.	(cccq/	.
16G\LL	(8bb-\L)	.
16d\	.	.
16B-\	8aa\)	.
16d\	.	.
16B-\	8gg'\J	.
16d\JJ	.	.
=23	=23	=23
16A\LL	(8ffn\L	.
16d\	.	.
16A\	8gg\)	.
16d\	.	.
16A\	8een'\J	.
16c#\JJ	.	.
16D\LL	4dd\	.
16d\	.	.
16c#\	.	.
16d\	.	.
16cn\	8dd\	.
16A\JJ	.	.
=24	=24	=24
.	(eee-q/	.
16G\LL	(8ddd\L)	p
16d\	.	.
16B-\	8ccc#'\)	.
16d\	.	.
16B-\	8ddd'\J	.
16d\JJ	.	.
.	(eee-q/	.
16F#\LL	(8ddd\L)	.
16d\	.	.
16A\	8ccc#\)	<
16d\	.	.
16A\	8ddd'\J	.
16d\JJ	.	.
=25	=25	=25
.	(eee-q/	.
16G\LL	(8ddd\L)	.
16d\	.	.
16B-\	8ccc#\)	.
16d\	.	.
16B-\	8ddd'\J	.
16d\JJ	.	.
.	fffq/	.
16G\LL	(8eee-\L	.
16e-\	.	.
16B-\	8ddd\)	.
16e-\	.	.
16B-\	8eee-'\J	.
16e-\JJ	.	.
=26	=26	=26
.	ffq/	.
16A\LL	[4.fff\	.
16f\	.	.
16c\	.	.
16f\	.	.
16c\	.	.
16f\JJ	.	.
16B-\LL	8fff\L]	.
16f\	.	.
16d\	8eee-'\	.
16f\	.	.
16d\	8ddd'\J	.
16f\JJ	.	.
=27	=27	=27
.	dddq/	.
16E-\LL	8ccc'\L	.
16c\	.	.
16G\	8bbn'\	.
16c\	.	.
16G\	8ccc'\J	.
16c\JJ	.	.
16F\LL	8eee-'\L	.
16c\	.	.
16A\	8ccc'\	.
16c\	.	.
16A\	8aa'\J	.
16c\JJ	.	.
=28	=28	=28
16D\LL	8bb-'\L	.
16d\	.	.
16B-\	8ddd'\	.
16d\	.	.
16B-\	[8fff\J	.
16d\JJ	.	.
16F\LL	8fff\L]	.
16d\	.	.
16B-\	8eee-'\	.
16d\	.	.
16B-\	8ddd'\J	.
16d\JJ	.	.
=29	=29	=29
.	dddq/	.
16E-\LL	8ccc'\L	.
16c\	.	.
16G\	8bbn'\	.
16c\	.	.
16G\	8ccc'\J	.
16c\JJ	.	.
16F\LL	8eee-'\L	.
16e-\	.	.
16A\	8ccc'\	.
16e-\	.	.
16c\	8aa'\J	.
16e-\JJ	.	.
=30	=30	=30
4B-\ 4d\	(8bb-\L	.
.	8ddd\	.
8r	8ccc\J	.
4r	8bb-\L	.
.	8aa\	.
8r	8gg\J	.
=31	=31	=31
2.r	8ff\L	.
.	8een\	.
.	8ff\J	>
.	8ff#\L	.
.	8gg\	.
.	8ee-\J)	.
=32	=32	=32
*	*^	*
2.r	4.dd/	8r	.
.	.	8f\L	.
.	.	8f\J	.
.	ee-q/	.	.
.	(8dd/L	8B-\L	.
.	8cc/	8f\	.
.	8dd/J)	8f\J	.
=33	=33	=33	=33
2.r	4.ee-/	(8c\L	.
.	.	8f\)	.
.	.	8f\J	.
.	ddq/	.	.
.	8cc/L	(8e-\L	.
.	8bn/	8f\)	.
.	8cc/J	8f\J	.
=34	=34	=34	=34
2.r	[4.ff/	(8d\L	.
.	.	8f\)	.
.	.	8f\J	.
.	(8ff/L]	8B-\L	.
.	8ee-'/	8f\	.
.	8dd'/J)	8f\J	.
=35	=35	=35	=35
2.r	(8cc/L	8c\L	.
.	8dd/)	8f\	.
.	8b-'/J	8f\J	.
.	(8a/L	8c\L	.
.	8b-'/)	8en\	.
.	8g/J	8e\J	.
*	*v	*v	*
=36	=36	=36
(8F\L	[4.f/	.
8A\	.	.
8c\J	.	.
8E-\L	(8f/L]	.
8A\	8g/	.
8c\J)	8a/J)	.
=37	=37	=37
.	(ccq/	.
8D\L	(8b-/L)	.
8F\	8a/	.
8F\J	8b-/J	.
8BB-\L	8f/L	.
8F\	8a/	.
8F\J	8b-/J)	.
=38	=38	=38
.	(ddq/	.
8AA\L	(8cc\L)	.
8F\	8bn\	.
8F\J	8cc\J	.
8FF\L	8f/L	.
8F\	8b-/	.
8F\J	8cc/J)	.
=39	=39	=39
.	ee-q/	.
(8BB-\L	(8dd\L	.
8F\	8cc\	.
8B-\J	8dd\J	<
8E-\L	8ee-\L	.
8G\	8ff\	.
8c\J)	8gg\J)	.
=40	=40	=40
*	*^	*
2.r	4.cc/	8F\L	.
.	.	8f\	.
.	.	8f\J	.
*	*v	*v	*
.	ee-q/	.
*	*^	*
.	(8dd/L	8B-\L	.
.	8cc/	8f\	.
.	8dd/J)	8f\J	.
=41	=41	=41	=41
2.r	4.ee-/	8c\L	.
.	.	8f\	.
.	.	8f\J	.
*	*v	*v	*
.	(ddq/	.
*	*^	*
.	(8cc/L)	8e-\L	.
.	8bn/	8f\	.
.	8cc/J)	8f\J	.
=42	=42	=42	=42
2.r	[4.ff/	8d\L	.
.	.	8f\	.
.	.	8f\J	.
.	(8ff/L]	8B-\L	.
.	8ee-/	8f\	.
.	8dd'/J)	8f\J	.
=43	=43	=43	=43
2.r	(8cc/L	8c\L	.
.	8dd/)	8f\	.
.	8b-/J	8f\J	.
.	(8a/L	8c\L	.
.	8b-/)	8en\	.
.	8g'/J	8e\J	.
*	*v	*v	*
=44	=44	=44
8F\L	([4.f/	.
8A\	.	.
8c\J	.	.
8E-\L	8f/L]	.
8A\	8g/	.
8c\J	8a/J)	.
=45	=45	=45
.	(ccq/	.
8D\L	(8b-/L)	.
8F\	8a/	.
8F\J	8b-/J	.
8BB-\L	8f/L	.
8F\	8a/	.
8F\J	8b-/J)	.
=46	=46	=46
.	(ddq/	.
8AA\L	8cc\L)	.
8F\	8bn\	.
8F\J	8cc\J	.
.	ee-q/	.
8BB-\L	(8dd\L	.
8F\	8cc\	.
8F\J	8dd\J)	.
=47	=47	=47
(8E-\L	(8ee-\L	.
8G\	8ff\	.
(8c\J)	8gg\J)	.
8F\L	(4b-\	.
8d\	.	.
8e-\J)	16dd\LL	.
.	16cc\JJ)	.
=48	=48	=48
(8B-\L	4b-/	.
8d\	.	.
8f\J)	8r	.
4r	(8b-/L	.
.	8a/	.
8r	8b-/J)	.
*clefG2	*	*
=49	=49	=49
*	*^	*
(4.d/ 4.f/	4ff/	4.b-\	<
.	8ff/	.	.
4.d-/ 4.f/	4ff/	4.bn\	.
.	8ff/	.	.
=50	=50	=50	=50
4.c/) 4.g/	4ff/	4.cc\	>
.	8een/	.	.
.	ddq/	.	.
4r	8cc/L	4.r	.
.	8bn/	.	.
8r	8cc/J	.	.
=51	=51	=51	=51
(4.c/ 4.g/	4ee-/	4.cc\	<
.	8ee-/	.	.
4.A/ 4.g-/	4ee-/	4.cc\	>
.	8ee-/	.	.
=52	=52	=52	=52
4.B-/) 4.f/	4ee-/	4.b-\	.
.	8dd/	.	.
.	ee-q/	.	.
4.r	8dd/L	8B-\L	.
.	8cc/	8f\	.
.	8dd/J	8f\J	.
=53	=53	=53	=53
2.r	4.ee-/	8c\L	.
.	.	8f\	.
.	.	8f\J	.
.	(ddq/	.	.
.	(8cc/L)	8e-\L	.
.	8bn/	8f\	.
.	8cc/J)	8f\J	.
*clefF4	*	*	*
*	*v	*v	*
=54	=54	=54
8d\L	([4.ff\	.
8B-\	.	.
8B-\J	.	.
8E-\L	8ff\L]	.
8B-\	8ff#\	.
8B-\J	8gg\J)	.
=55	=55	=55
8F\L	(4.b-\	.
8B-\	.	.
8B-\J	.	.
8F\L	4dd\	.
8A\	.	.
8A\J	8cc\	.
=56	=56	=56
8BB-\L	4b-\)	.
8B-\	.	.
8B-\J	8r	.
.	(ccq/	.
4r	(8b-/L)	.
.	8a/	.
8r	8b-/J)	.
=57	=57	=57
*	*^	*
8d\L	4ff/	4.b-\	.
8f\	.	.	.
8f\J	8ff/	.	.
8d-\L	4ff/	4.bn\	.
8f\	.	.	.
8f\J	8ff/	.	.
=58	=58	=58	=58
8c\L	(4ff/	4.cc\	>
8g\	.	.	.
8g\J	8een/)	.	.
.	(ddq/	.	.
4.r	(8cc/L)	8g\L	.
.	8bn/	8g\	.
.	8cc/J)	8g\J	.
=59	=59	=59	=59
8c\L	4ee-/	4.cc\	<
8g\	.	.	.
8g\J	8ee-/	.	.
8A\L	4ee-/	4.cc\	.
8g-\	.	.	.
8g-\J	8ee-/	.	.
=60	=60	=60	=60
8B-\L	(4ee-/	4.b-\	.
8f\	.	.	.
8f\J	8dd/	.	.
.	ee-q/)	.	.
4.r	(8dd/L	8f\L	.
.	8cc/	8f\	.
.	8dd/J)	8f\J	.
=61	=61	=61	=61
2.r	4.ee-/	8c\L	.
.	.	8f\	.
.	.	8f\J	.
.	(ddq/	.	.
.	(8cc/L)	8e-\L	.
.	8bn/	8f\	.
.	8cc/J)	8f\J	.
*	*v	*v	*
=62	=62	=62
8d\L	[4.ff\	.
8B-\	.	.
8B-\J	.	.
(8E-\L	(8ff\L]	.
8B-\	8ff#\	.
8e-\J)	8gg\J)	.
=63	=63	=63
(8F\L	(4.b-\	.
8B-\	.	.
8d\J)	.	.
(8F\L	4dd\	.
8A\	.	.
8e-\J)	8cc\)	.
=64	=64	=64
4B-\ 4d\	4b-\	.
8d'\	8dd'\	f
(e-q/	(ee-q/	.
8d'\L)	8dd'\L)	.
8c#'\	8cc#'\	.
8d'\J	8dd'\J	.
=65	=65	=65
(4e-\	(4ee-\	f
8d'\)	8dd'\)	.
8cn'\L	8ccn'\L	.
8B-'\	8b-'\	.
8A'\J	8a'\J	.
=66	=66	=66
(4d\	(4dd\	f
8c'\)	8cc'\)	.
8B-'\L	8b-'/L	.
8A'\	8a'/	.
8G'\J	8g'/J	.
=67	=67	=67
4.C\ 4.A\	8e-/L	.
.	8cc/	.
.	8b-'/J	.
4.D\ 4.c\	8a'/L	.
.	8g'/	.
.	8f#'/J	.
=68	=68	=68
16G\LL	4g/	.
16d\	.	.
16B-\	.	.
16d\	.	.
16B-\	8ddd\	p
16d\JJ	.	.
16F#\LL	(8ddd\L	<
16d\	.	.
16A\	8ccc#\)	.
16d\	.	.
16A\	8ddd'\J	.
16d\JJ	.	.
=69	=69	=69
16G\LL	(8ddd\L	.
16d\	.	.
16B-\	8ccc#\)	.
16d\	.	.
16B-\	8ddd'\J	.
16d\JJ	.	.
16F#\LL	(8ddd\L	.
16d\	.	.
16A\	8ccc#\)	.
16d\	.	.
16A\	8ddd'\J	.
16d\JJ	.	.
=70	=70	=70
16G\LL	(8ddd\L	f
16d\	.	.
16B-\	8cccn\)	.
16d\	.	.
16B-\	8bb-'\J	.
16d\JJ	.	.
.	(cccq/	.
16G\LL	(8bb-\L)	.
16d\	.	.
16B-\	8aa\)	.
16d\	.	.
16B-\	8gg'\J	.
16d\JJ	.	.
=71	=71	=71
16A\LL	(8ffn\L	.
16d\	.	.
16A\	8gg\)	.
16d\	.	.
16A\	8een'\J	.
16c#\JJ	.	.
16D\LL	4dd\	.
16d\	.	.
16c#\	.	.
16d\	.	.
16cn\	8dd\	.
16A\JJ	.	.
=72	=72	=72
.	(eee-q/	.
16G\LL	(8ddd\L)	p
16d\	.	.
16B-\	8ccc#\)	.
16d\	.	.
16B-\	8ddd\J	.
16d\JJ	.	.
.	(eee-q/	.
16F#\LL	(8ddd\L)	.
16d\	.	.
16A\	8ccc#\)	.
16d\	.	.
16A\	8ddd'\J	.
16d\JJ	.	.
=73	=73	=73
.	(eee-q/	.
16G\LL	(8ddd\L)	.
16d\	.	.
16B-\	8ccc#\)	.
16d\	.	.
16B-\	8ddd'\J	.
16d\JJ	.	.
.	fffq/	.
16G\LL	(8eee-\L	.
16e-\	.	.
16B-\	8ddd\)	.
16e-\	.	.
16B-\	8eee-'\J	.
16e-\JJ	.	.
=74	=74	=74
.	ffq/	.
16A\LL	[4.fff\	f
16f\	.	.
16c\	.	.
16f\	.	.
16c\	.	.
16f\JJ	.	.
16B-\LL	(8fff\L]	.
16f\	.	.
16d\	8eee-\)	.
16f\	.	.
16d\	8ddd'\J	.
16f\JJ	.	.
=75	=75	=75
.	(ee-q/	.
16G\LL	[4.eee-\)	.
16e-\	.	.
16B-\	.	.
16e-\	.	.
16B-\	.	.
16e-\JJ	.	.
16A\LL	(8eee-\L]	.
16e-\	.	.
16c\	8ddd\)	.
16e-\	.	.
16c\	8ccc'\J	.
16e-\JJ	.	.
=76	=76	=76
.	(ddq/	.
16F#\LL	[4.ddd\)	.
16d\	.	.
16A\	.	.
16d\	.	.
16A\	.	.
16d\JJ	.	.
16G\LL	(8ddd\L]	.
16d\	.	.
16B-\	8ccc\)	.
16d\	.	.
16B-\	8bb-'\J	.
16d\JJ	.	.
=77	=77	=77
16C\LL	(8aa\L	f
16A\	.	.
16E-\	8bb-\)	.
16A\	.	.
16E-\	8ccc'\J	.
16A\JJ	.	.
16D\LL	(8ff#\L	.
16A\	.	.
16F#\	8gg\)	.
16A\	.	.
16F#\	8aa\J	.
16A\JJ	.	.
=78	=78	=78
8GG/L	4gg\	.
8G/J	.	.
8r	8d'/	pp
4r	8d'/L	.
.	8g'/	.
8r	8a'/J	.
=79	=79	=79
4r	(8b-/L	.
.	8g/J)	.
8d'\	8r	.
8r	8d'/L	.
4r	8a'/	.
.	8b-'/J	.
=80	=80	=80
4r	(8cc\L	.
.	8a\J)	.
8d'\	8r	.
8r	8d/L	.
8Bn'\ 8d'\L	8g/	.
8A'\ 8c'\J	8a/J	.
=81	=81	=81
*k[f#]	*k[f#]	*k[f#]
*G:	*G:	*G:
4G\ 4B\	(8b/L	.
.	8g/J)	.
8r	8e/	.
8r	8e'/L	.
8c'\ 8e'\L	8a'/	.
8B'\ 8d'\J	8b'/J	.
=82	=82	=82
4A\ 4c\	(8cc\L	.
.	8a\J)	.
8r	8ee\	.
8r	8dd'\L	.
8F#'\ 8A'\L	8cc'\	.
8G'\ 8B'\J	8b'\J	.
=83	=83	=83
8A'\ 8c'\L	8a'/L	.
8B'\ 8d'\	8g'/	.
8c'\ 8e'\J	8a'/J	.
.	(gq/LL	.
.	aq/JJ	.
4.c#\ 4.e\	8b-/L)	.
.	8a/	.
.	8g'/J	.
=84	=84	=84
4d\	(8f#/L	.
.	8d/J)	.
8r	8d'/	.
8r	8d'/L	.
8B'\ 8d'\L	8g'/	.
8A'\ 8c'\J	8a'/J	.
=85	=85	=85
4G\ 4B\	8b/L	.
.	8g/J	.
8r	8e'/	.
8r	8e'/L	.
8c'\ 8e'\L	8a'/	.
8d'\J	8b'/J	.
=86	=86	=86
4A\ 4c\	(8cc\L	.
.	8a\J)	.
8r	8ee'\	.
8r	8dd'\L	.
8F#'\ 8A'\L	8cc'\	.
8B'\J	8b'\J	.
=87	=87	=87
*	*^	*
8A'\ 8c'\L	8a'/L	4.r	.
8B'\ 8d'\	8g'/	.	.
8c'\ 8e'\J	8a'/J	.	.
4D\ 4B\	8d/L	(4d\	.
.	8g/)	.	.
8D\ 8A\	8f#'/J	8c\	.
*	*v	*v	*
=88	=88	=88
4GG\ 4G\	4B/ 4g/	.
8r	8d/	.
4r	8g'/L	.
.	8b'/	.
8r	8dd'/J	.
=89	=89	=89
8r	(8dd\L	.
8F#'\ 8d'\L	8a'\ 8cc'\)	.
8F#'\ 8d'\J	8a'\ 8cc'\J	.
8r	(8dd\L	.
8G'\ 8d'\L	8g'\ 8b'\)	.
8d'\J	8g'\ 8b'\J	.
=90	=90	=90
8r	(8dd\L	.
8F#'\ 8d'\L	8a'\ 8cc'\)	.
8F#'\ 8d'\J	8a'\ 8cc'\J	<
8r	(8dd\L	.
8G'\ 8d'\L	8g'\ 8b'\)	.
8G'\ 8d'\J	8g'\ 8b'\J	.
=91	=91	=91
8r	(8dd\L	f
8F#'\ 8d'\L	8a'\ 8cc'\)	.
8G'\ 8d'\J	8g'\ 8b'\J	.
8r	(8dd\L	.
8F#'\ 8d'\L	8a'\ 8cc'\)	.
8G'\ 8d'\J	8g'\ 8b'\J	.
=92	=92	=92
*	*^	*
4F#;\ 4d;\	4dd/	4a;\ 4cc;\	.
*clefG2	*	*	*
8r	8r	8dd\	p
8r	4.r	8dd'\L	.
8b'\ 8dd'\L	.	8gg'\	.
8a'\ 8cc'\J	.	8aa'\J	.
*	*v	*v	*
=93	=93	=93
4g/ 4b/	(8bb\L	.
.	8gg\J)	.
8r	8ee'\	.
8r	8ee'\L	.
8cc'\ 8ee'\L	8aa'\	.
8b'\ 8dd'\J	8bb'\J	.
=94	=94	=94
4a/ 4cc/	(8ccc\L	.
.	8aa\J)	.
8r	8eee'\	.
8r	8ddd'\L	.
8f#'/ 8a'/L	8ccc'\	.
8g'/ 8b'/J	8bb'\J	.
=95	=95	=95
*	*^	*
.	.	bbq/	.
.	4.r	.	.
8a'\ 8cc'\L	.	8aa'\L	.
8b'\ 8dd'\	.	8gg'\	.
8cc'\ 8ee'\J	.	8aa'\J	.
4d/ 4b/	(8dd/L	4dd\	.
.	8gg/)	.	.
8d/ 8a/	8ff#'/J	8cc\	.
*	*v	*v	*
=96	=96	=96
4G/ 4g/	4b\ 4gg\	.
8cc'\	8r	.
8b'/L	8r	.
8a'/	8ccc'\L	.
8g'/J	8bb'\J	.
=97	=97	=97
*^	*^	*
8f#'/L	4.r	4.r	8aa\L	.
8e'/	.	.	8gg\	.
8f#'/J	.	.	8ff#\J	.
(4g/	4.B\	8b/L	(4b\	.
.	.	8ee/	.	.
8f#/)	.	8dd#'/J)	8a\	.
*v	*v	*	*	*
=98	=98	=98	=98
4e/	(8ff#/L	4g\	.
.	8ee/J	.	.
8r	8r	8aa'\)	.
8r	4.r	8gg'\L	.
8a'/L	.	8ffn'\	.
8g'/J	.	8ee'\J	.
=99	=99	=99	=99
*^	*	*	*
4.r	8fn/L	4.r	8dd'\L	.
.	8e/	.	8cc'\	.
.	8f/J	.	8dd'\J	.
*v	*v	*	*	*
*clefF4	*	*	*
*^	*	*	*
(4e/	4.G\	(8g/L	4g\	.
.	.	8cc/	.	.
8d/)	.	8b'/J)	8fn\	.
=100	=100	=100	=100	=100
4.c/	4C\	(8dd/L	4.e\	.
.	.	8cc/	.	.
.	8r	8cc'/J)	.	.
(4c/	4.E\	(8e/L	4e\	.
.	.	8a/	.	.
8B/)	.	8g#'/J)	8d\	.
=101	=101	=101	=101	=101
4A/	4AA\	(8b/L	4.c\	.
.	.	8a/	.	.
(4B/	8r	8a'/J)	.	.
.	4.D\	(8d/L	4d\	.
4A/)	.	8gn/)	.	.
.	.	8f#'/J	8c\	.
*v	*v	*	*	*
=102	=102	=102	=102
4.GG/ 4.G/	(8a/L	4.B\	.
.	8g/	.	.
.	8g'/J)	.	.
4.AA/ 4.E/	(8d/L	4.G\	.
.	8c#/)	.	.
.	8c#/J	.	.
*	*v	*v	*
=103	=103	=103
8DD/L	4F#/ 4d/	.
8D/	.	.
8D/J	8r	.
.	(ccq/	.
8GG/L	(8b/L)	.
8D/	8a/	.
8D/J	8b/J	.
=104	=104	=104
8AA/L	4.cc\)	.
8D/	.	.
8D/J	.	.
.	(bq/	.
8C/L	(8a/L)	.
8D/	8g#/	.
8D/J	8a/J	.
=105	=105	=105
8BB/L	[4.dd\	.
8D/	.	.
8D/J	.	.
8GG/L	8dd\L]	.
8D/	8cc\	.
8D/J	8b\J)	.
=106	=106	=106
8AA/L	(8a/L	.
8D/	8b/)	.
8D/J	8g'/J	.
8AA/L	(8f#/L	.
8C#/	8g/)	.
8C#/J	8e'/J	.
=107	=107	=107
8DD/L	[4.d/	.
8D/	.	.
8D/J	.	.
8Cn/L	(8d/L]	.
8D/	8e/	.
8D/J	8f#/J)	.
=108	=108	=108
.	aq/	.
8BB/L	(8g/L	.
8D/	8f#/	.
8D/J	8g/J	.
8GG/L	8d/L	.
8D/	8f#/	.
8D/J	8g/J)	.
=109	=109	=109
.	(bq/	.
8FF#/L	(8a/L)	.
8D/	8g#/	.
8D/J	8a/J	.
8DD/L	8d/L	.
8D/	8gn/	.
8D/J	8a/J)	.
=110	=110	=110
(8GG/L	(8b\L	<
8D/	8a\	.
8G/J)	8b\J	.
(8C\L	8cc\L	.
8E\	8dd\	.
8A\J)	8ee\J)	.
=111	=111	=111
8D\L	4a/	.
8d\	.	.
8d\J	8r	.
.	(cccq/	.
8G\L	(8bb\L)	p
8d\	8aa\	.
8d\J	8bb\J	.
=112	=112	=112
8A\L	4.ccc\)	.
8d\	.	.
8d\J	.	.
.	bbq/	.
8c\L	(8aa\L	.
8d\	8gg#\	.
8d\J	8aa\J	.
=113	=113	=113
8B\L	[4.ddd\	.
8d\	.	.
8d\J	.	.
8G\L	8ddd\L]	.
8d\	8ccc\	.
8d\J	8bb\J)	.
=114	=114	=114
8A\L	(8aa\L	.
8d\	8bb\)	.
8e\J	8gg'\J	.
8A\L	(8ff#\L	.
8c#\	8gg\)	.
8c#\J	8ee'\J	.
=115	=115	=115
8D\L	[4.dd\	.
8d\	.	.
8d\J	.	.
8cn\L	(8dd\L]	.
8d\	8ee\	.
8d\J	8ff#\J)	.
=116	=116	=116
.	(aaq/	.
8B\L	(8gg\L)	.
8d\	8ff#\	.
8d\J	8gg\J	.
8G\L	8dd\L	.
8d\	8ff#\	.
8d\J	8gg\J)	.
=117	=117	=117
.	bbq/	.
(8F#\L	(8aa\L	<
8A\	8gg#\	.
8d\J)	8aa\J)	.
.	(cccq/	.
(8G\L	(8bb\L)	.
8B\	8aa\	.
8d\J)	8bb\J)	.
=118	=118	=118
.	(dddq/	.
(8C\L	8ccc\L	.
8E\	8bb\)	.
8A\J)	8ccc\J	.
8D\ (8F#\L	(4eee\	>
8A\	.	.
8c\J)	8ff#\)	.
=119	=119	=119
(8G\L	4gg\	.
8B\	.	.
8d\J)	8r	.
.	(aq/	.
4r	(8g/L)	.
.	8f#/	.
8r	8g/J)	.
=120	=120	=120
*	*^	*
4.B\ (4.d\	4dd/	4.g\	<
.	8dd/	.	.
4.B-\ 4.d\	4dd/	4.g#\	>
.	8dd/	.	.
=121	=121	=121	=121
4A\ 4e\)	4dd/	4.a\	.
8r	8cc#/	.	.
.	bq/	.	.
4r	8a/L	4.r	.
.	8g#/	.	.
8r	8a/J	.	.
=122	=122	=122	=122
4.A\ (4.e\	4ccn/	4.a\	<
.	8cc/	.	.
4.F#\ 4.e-\	4cc/	4.a\	>
.	8cc/	.	.
=123	=123	=123	=123
4.G\ 4.d\)	4cc/	4.g\	.
.	8b/	.	.
.	ccq/	.	.
8G\L	8b/L	4.r	.
8d\	8a/	.	.
8d\J	8b/J	.	.
*	*v	*v	*
=124	=124	=124
8A\L	4.cc\	.
8d\	.	.
8d\J	.	.
.	(bq/	.
8c\L	(8a/L)	.
8d\	8g#/	.
8d\J	8a/J)	.
=125	=125	=125
8B\L	[4.dd\	.
8G\	.	.
8G\J	.	.
8C\L	(8dd\L]	.
8G\	8dd#\	.
8G\J	8ee\J)	.
=126	=126	=126
8D\L	(4.g/	.
8G\	.	.
8G\J	.	.
8D\L	4b/	.
8F#\	.	.
8F#\J	8a/)	.
=127	=127	=127
8GG\L	4g/	.
8G\	.	.
8G\J	8r	.
.	aq/	.
4r	(8g/L	.
.	8f#/	.
8r	8g/J)	.
=128	=128	=128
*	*^	*
8B\L	4dd/	4.g\	<
8d\	.	.	.
8d\J	8dd/	.	.
8B-\L	4dd/	4.g#\	.
8d\	.	.	.
8d\J	8dd/	.	.
=129	=129	=129	=129
8A\L	(4dd/	4.a\	>
8e\	.	.	.
8e\J	8cc#/)	.	.
.	(bq/	.	.
8e\L	(8a/L)	4.r	.
8e\	8g#/	.	.
8e\J	8a/J)	.	.
=130	=130	=130	=130
8A\L	4ccn/	4.a\	<
8e\	.	.	.
8e\J	8cc/	.	.
8F#\L	4cc/	4.a\	.
8e-\	.	.	.
8e-\J	8cc/	.	.
=131	=131	=131	=131
8G\L	(4cc/	4.g\	>
8d\	.	.	.
8d\J	8b/)	.	.
.	ccq/	.	.
8d\L	(8b/L	4.r	.
8d\	8a/	.	.
8d\J	8b/J)	.	.
*	*v	*v	*
=132	=132	=132
8A\L	4.cc\	.
8d\	.	.
8d\J	.	.
.	(bq/	.
8c\L	(8a/L)	.
8d\	8g#/	.
8d\J	8a/J)	.
=133	=133	=133
8B\L	([4.dd\	.
8G\	.	.
8G\J	.	.
(8C\L	8dd\L]	.
8G\	8dd#\	.
8c\J)	8ee\J)	.
=134	=134	=134
(8D\L	(4.g/	.
8G\	.	.
8B\J)	.	.
(8D\L	4b/	.
8F#\	.	.
8c\J)	8a/)	.
=135	=135	=135
4G\ 4B\	4g/	.
8r	8d'/	.
8r	8d'/L	.
8B'\ 8d'\L	8g'/	.
8A'\ 8c'\J	8a'/J	.
=136	=136	=136
4G\ 4B\	(8b/L	.
.	8g/J)	.
8r	8d'/	.
8r	8d'/L	.
8A'\ 8c'\L	8a'/	.
8G'\ 8B'\J	8b'/J	.
=137	=137	=137
4F#\ 4A\	(8cc\L	.
.	8a\J)	.
8D'\	8r	f
8D'\L	8r	.
8G'\	8b\ 8dd\L	f
8A'\J	8a'\ 8cc'\J	.
=138	=138	=138
4B\	(8g/ 8b/L	.
.	8d/J)	.
8D'\	8r	.
8D'\L	8r	.
8A'\	8a'/ 8cc'/L	.
8B'\J	8g'/ 8b'/J	.
=139	=139	=139
4c\	(8f#/ 8a/L	.
.	8d/J)	.
8r	8d'/	p
8r	8d'/L	.
8B'\ 8d'\L	8g'/	.
8A'\ 8c'\J	8a'/J	.
=140	=140	=140
4G\ 4B\	(8b/L	.
.	8g/J)	.
8r	8e'/	.
8r	8e'/L	<
(8c'\ 8e'\L	8a'/	.
8B'\) 8d'\J	8b'/J	.
=141	=141	=141
4A\ 4c\	8cc\L	.
.	8a\J	.
8r	8ee'\	p
8r	8dd'\L	.
8F#'\ 8A'\L	8cc'\	.
8G'\ 8B'\J	8b'\J	.
=142	=142	=142
8A\ (8c\L	(8a/L	.
8B\ 8d\J)	8g/J)	f
8e'\	8r	.
8d'\L	8r	.
8c'\	8ee'\L	f
8B'\J	8dd'\ 8gg'\J	.
=143	=143	=143
(8A\L	8cc\ (8ff#\L	.
8G\J)	8b\ 8gg\J)	.
8r	8ee'\	p
8r	8dd'\L	.
8F#'\ 8A'\L	8cc'\	p
8G'\ 8B'\J	8b'\J	.
=144	=144	=144
8A\ (8c\L	(8a/L	.
8B\ 8d\J)	8g/J)	f
8e'\	8r	.
8d'\L	8r	.
8c'\	8ee'\L	f
8B'\J	8dd'\ 8gg'\J	.
=145	=145	=145
(8A\L	8cc\ (8ff#\L	.
8G\)	8b\ 8gg\J)	.
8d'\J	8r	.
4r	8ee#\ (8gg#\L	p
.	8ff#\ 8aa\J)	.
8d'\	8r	.
=146	=146	=146
4r	8ff#\ (8aa#\L	<
.	8gg\ 8bb\J)	.
8d'\	8r	.
4r	8gg#\ (8bb\L	.
.	8aan\ 8ccc\J)	.
8d'\	8r	.
=147	=147	=147
*	*^	*
[2.D\ [2.F#\ [2.A\ [2.d\	[4.ff#/ [4.aa/ [4.ccc/	[2.cc\	.
.	4ff#/] 4aa/] 4ccc/]	.	.
.	8aa/	.	.
=148	=148	=148	=148
4D;\] 4F#;\] 4A;\] 4d;\]	4ff#;/	4cc;\]	.
8DD'/	8r	8r	p
8DD'/L	4r	4r	.
8AA'/	.	.	.
8BB'/J	8r	8r	.
*	*v	*v	*
=149	=149	=149
*^	*	*
8F#/L	4.C\	(4.d/	p
8A/	.	.	.
8F#/J	.	.	.
8G/L	4.BB\	4.d/	.
8B/	.	.	.
8G/J	.	.	.
=150	=150	=150	=150
(8c/L	4.AA\	4.f#/	.
8d/	.	.	.
8c/J)	.	.	.
(8B/L	4.GG\	4.g/)	.
8d/	.	.	.
8B/J)	.	.	.
=151	=151	=151	=151
4r	2.C\	8r	.
.	.	(8e/L	.
8r	.	8g#/J	.
4.c/	.	8a/L	.
.	.	8cc/	.
.	.	8a/J)	.
=152	=152	=152	=152
*	*	*^	*
4.B/	4.D\	(8gn/L	4.d\	.
.	.	8b/	.	.
.	.	8g/J)	.	.
4.A/	4.D\	(8f#/L	4.c\	.
.	.	8a/	.	.
.	.	8f#/J)	.	.
*v	*v	*	*	*
*	*v	*v	*
=153	=153	=153
8GG/L	4B/ 4g/	p
8D/	.	.
8G/J	8d/	.
8GG/L	(8d/L	.
8D/	8a/	.
8G/J	8b/J)	.
=154	=154	=154
8GG/L	4cc'\	.
8D/	.	.
8F#/J	8dd\	.
8GG/L	(8dd\L	.
8D/	8aa\	.
8F#/J	8bb\J)	.
=155	=155	=155
8GG/L	4ccc'\	.
8D/	.	.
8F#/J	8d/	.
8GG/L	(8d/L	.
8D/	8dd/	.
8F#/J	8cc/J)	.
=156	=156	=156
8GG/L	4b'\	.
8D/	.	.
8G/J	(8dd\	.
8GG/L	8dd\L	.
8D/	8ddd\	.
8F#/J	8ccc\J)	.
=157	=157	=157
8GG/L	4bb'\	.
8D/	.	.
8G/J	8d/	.
8GG/L	(8d/L	.
8D/	8a/	.
8G/J	8b/J)	.
=158	=158	=158
8GG/L	4cc'\	.
8D/	.	.
8F#/J	8dd\	.
8GG/L	(8dd\L	.
8D/	8aa\	.
8F#/J	8bb\J)	.
=159	=159	=159
8GG/L	4ccc'\	.
8D/	.	.
8F#/J	8d/	.
8GG/L	(8d/L	.
8D/	8dd/	.
8F#/J	8cc/J)	.
=160	=160	=160
8GG/L	4b'\	.
8D/	.	.
8G/J	8r	.
8GG/L	(8dd\L	.
8D/	8ddd\	.
8F#/J	8ccc\J)	.
=161	=161	=161
8GG/L	4bb'\	.
8D/	.	.
8G/J	8r	.
8GG/L	(8d/L	.
8D/	8dd/	.
8F#/J	8cc/J)	.
=162	=162	=162
8GG/L	4b'\	.
8D/	.	.
8G/J	8r	.
8GG/L	(8dd\L	.
8D/	8ddd\	.
8F#/J	8ccc\J)	.
=163	=163	=163
8GG/L	4bb'\	.
8D/	.	.
8G/J	8r	.
8GG/L	4b\ 4dd\ 4gg\ 4bb\	ff
8D/	.	.
8G/J	8r	.
=164	=164	=164
4GG/	4g\ 4b\ 4dd\ 4gg\	.
8r	8r	.
4r;	4r;	.
==	==	==
*-	*-	*-
